X:154
T:Sovay Version 1 of 2
%%VWML:GB-6a-154-0
F:http://www.vwml.org/record/GB/6a/154
C:Transcribed by Simon Furey and Lewis Jones
L:1/4
M:3/2
I:linebreak $
K:G
D |[M:5/4] G F G2 A |[M:3/2] G E D3 D | G F G3 A/B/ | c d A2 G3/2 G/ |$ A/B/ c d2 c c | B A G3/2 F/ D E | =F G F3/2 E/ !fermata!D C | D D d3/2 e/ d c | B A G3 |]
T:Sovay Version 2 of 2
C:Sung by Mr Welfare, East Chiltington, Sussex, VII. 08
L:1/4
M:3/2
I:linebreak $
K:G
D |"^(a)" G F G2 A2 | G E D3 G | G F G2 G/A/ B | c B A2 B3/2 c/ | d d/B/ c2 d G |$ A F/E/ D3 D | G A B3/2 A/ !fermata!G G |[M:5/4] G d c B A |[M:3/2] B B/A/ G3 x |]"^(a) var." F G2 A3/2 G/ |
F E D3 G |

